X: 34371
T: Reverend Peter Fenton
R: barndance
M: 4/4
K: Gmajor
|:Bc|dgBc d2 d2|dgBc d2 d2|dcBc d2 g2|fa e2 e3 g|
faeg f2 f2|faeg f2 f2|1 fedc BAGF|G2 e2 d2:|2 fd^cd e2 f2|g2 G2 G2||
Bc|d2 d2 B2 G2|gf e2 d4|g3 f a2 g2|g2 f2 f2 AB|
cccc cB A2|f2 f2 e3 f|gggg f2 e2|d2 B2 c2 ^c2|
dddd B2 G2|gf e2 d4|g3 f a2 g2|f2 a2 e3 g|
ffff e2 d2|f2 f2 f2 G2|FGAB cedc|(3BcB G2 G2||

